svg/icon/btcd.svg

<svg height="32" viewBox="0 0 32 32" width="32" xmlns="http://www.w3.org/2000/svg" xmlns:xlink="http://www.w3.org/1999/xlink"><defs><linearGradient id="a" x1="50%" x2="50%" y1="0%" y2="100%"><stop offset="0" stop-color="#fff" stop-opacity=".5"/><stop offset="1" stop-opacity=".5"/></linearGradient><circle id="b" cx="16" cy="15" r="15"/><filter id="c" height="111.7%" width="111.7%" x="-5.8%" y="-4.2%"><feOffset dy=".5" in="SourceAlpha" result="shadowOffsetOuter1"/><feGaussianBlur in="shadowOffsetOuter1" result="shadowBlurOuter1" stdDeviation=".5"/><feComposite in="shadowBlurOuter1" in2="SourceAlpha" operator="out" result="shadowBlurOuter1"/><feColorMatrix in="shadowBlurOuter1" values="0 0 0 0 0   0 0 0 0 0   0 0 0 0 0  0 0 0 0.199473505 0"/></filter><path id="d" d="m17.0784132 18.3558047c5.080006-1.5667473 3.2667038-6.8334426 0-7.033481.8300009 0 1.5077017-2.37778258 1.5077017-5.3223237 7.9756095.56665687 11.723014 13.7114285-.2400002 17.8226401.0765001-1.0667021-.3605005-4.0444982-1.2674015-5.4668354zm-11.0784132-1.5559674v-5.4668354h.01090001c2.88440343-.011085 5.21150619-2.40005426 5.20060619-5.32232369h5.5610066c0 5.96677889-4.8181057 10.78915909-10.7725128 10.78915909zm7.2873087-.9889037h.0001c3.2995039 2.711146 3.4852041 7.2779611 3.4852041 8.1890664h-5.5611066c0-3.0223395-1.96660235-5.4668354-4.40300524-5.4668354 4.12980494-.6666252 4.97150594-1.3666072 6.47880774-2.722231z"/><filter id="e" height="119.4%" width="117.5%" x="-8.8%" y="-6.9%"><feOffset dy=".5" in="SourceAlpha" result="shadowOffsetOuter1"/><feGaussianBlur in="shadowOffsetOuter1" result="shadowBlurOuter1" stdDeviation=".5"/><feColorMatrix in="shadowBlurOuter1" values="0 0 0 0 0   0 0 0 0 0   0 0 0 0 0  0 0 0 0.204257246 0"/></filter></defs><g fill="none" fill-rule="nonzero"><g><use fill="#000" filter="url(#c)" xlink:href="#b"/><use fill="#f60" fill-rule="evenodd" xlink:href="#b"/><use fill="url(#a)" fill-rule="evenodd" xlink:href="#b"/><circle cx="16" cy="15" r="14.5" stroke="#000" stroke-opacity=".097"/></g><g><use fill="#000" filter="url(#e)" xlink:href="#d"/><use fill="#fff" fill-rule="evenodd" xlink:href="#d"/></g></g></svg>

<svg xmlns="http://www.w3.org/2000/svg" xmlns:xlink="http://www.w3.org/1999/xlink" width="32" height="32" viewBox="0 0 32 32">
  <defs>
    <linearGradient id="btcd-c" x1="50%" x2="50%" y1="0%" y2="100%">
      <stop offset="0%" stop-color="#FFF" stop-opacity=".5"/>
      <stop offset="100%" stop-opacity=".5"/>
    </linearGradient>
    <circle id="btcd-b" cx="16" cy="15" r="15"/>
    <filter id="btcd-a" width="111.7%" height="111.7%" x="-5.8%" y="-4.2%" filterUnits="objectBoundingBox">
      <feOffset dy=".5" in="SourceAlpha" result="shadowOffsetOuter1"/>
      <feGaussianBlur in="shadowOffsetOuter1" result="shadowBlurOuter1" stdDeviation=".5"/>
      <feComposite in="shadowBlurOuter1" in2="SourceAlpha" operator="out" result="shadowBlurOuter1"/>
      <feColorMatrix in="shadowBlurOuter1" values="0 0 0 0 0   0 0 0 0 0   0 0 0 0 0  0 0 0 0.199473505 0"/>
    </filter>
    <path id="btcd-e" d="M17.0784132,18.3558047 C22.1584192,16.7890574 20.345117,11.5223621 17.0784132,11.3223237 C17.9084141,11.3223237 18.5861149,8.94454112 18.5861149,6 C26.5617244,6.56665687 30.3091289,19.7114285 18.3461147,23.8226401 C18.4226148,22.755938 17.9856142,19.7781419 17.0787132,18.3558047 L17.0784132,18.3558047 Z M6,16.7998373 L6,11.3330019 L6.01090001,11.3330019 C8.89530344,11.3219169 11.2224062,8.93294764 11.2115062,6.01067821 L16.7725128,6.01067821 C16.7725128,11.9774571 11.9544071,16.7998373 6,16.7998373 Z M13.2873087,15.8109336 L13.2874087,15.8109336 C16.5869126,18.5220796 16.7726128,23.0888947 16.7726128,24 L11.2115062,24 C11.2115062,20.9776605 9.24490385,18.5331646 6.80850096,18.5331646 C10.9383059,17.8665394 11.7800069,17.1665574 13.2873087,15.8109336 Z"/>
    <filter id="btcd-d" width="117.5%" height="119.4%" x="-8.8%" y="-6.9%" filterUnits="objectBoundingBox">
      <feOffset dy=".5" in="SourceAlpha" result="shadowOffsetOuter1"/>
      <feGaussianBlur in="shadowOffsetOuter1" result="shadowBlurOuter1" stdDeviation=".5"/>
      <feColorMatrix in="shadowBlurOuter1" values="0 0 0 0 0   0 0 0 0 0   0 0 0 0 0  0 0 0 0.204257246 0"/>
    </filter>
  </defs>
  <g fill="none" fill-rule="evenodd">
    <g fill-rule="nonzero">
      <use fill="#000" filter="url(#btcd-a)" xlink:href="#btcd-b"/>
      <use fill="#F60" fill-rule="evenodd" xlink:href="#btcd-b"/>
      <use fill="url(#btcd-c)" fill-rule="evenodd" style="mix-blend-mode:soft-light" xlink:href="#btcd-b"/>
      <circle cx="16" cy="15" r="14.5" stroke="#000" stroke-opacity=".097"/>
    </g>
    <g fill-rule="nonzero">
      <use fill="#000" filter="url(#btcd-d)" xlink:href="#btcd-e"/>
      <use fill="#FFF" fill-rule="evenodd" xlink:href="#btcd-e"/>
    </g>
  </g>
</svg>
